X:1
T:Jolly Roving Tar
M:6/8
L:1/8
K:D
 FD| E A2 F2 E| D2 E F2 A|d-B AF-E F| D3- D2 F/2D/2| E A2 F2 E| D2 E F2 A|\
d-B AF-E F| D3- D2 A| B e2 B2 c/2c/2| d B2 F2 E| E- F2E-A, B,| D3- D2 F/2D/2|\
 E A2 F2 E| D2 E F2 A|d-B AF-E F| D6|
